!!!!SEGMENT: Wil2020-Congratulamini_mihi_omnes.krn
!!!id: Wil2020
!!!AGN: Motet
!!!SCT: Zenck (1950)
!!!voices: 4
!!!COM: Adrian Willaert
!!!OTL: Congratulamini mihi omnes
**kern	**kern	**kern	**kern
*part4	*part3	*part2	*part1
*staff4	*staff3	*staff2	*staff1
*I"Bassus	*I"Tenor	*I"Altus	*I"Superius
*I'B	*I'T	*I'A	*I'S
*clefF4	*clefGv2	*clefG2	*clefG2
*k[]	*k[]	*k[]	*k[]
*C:	*C:	*C:	*C:
*M2/1	*M2/1	*M2/1	*M2/1
*met(C|)	*met(C|)	*met(C|)	*met(C|)
!!section: Prima pars: Congratulamini mihi omnes
!!!OMD: Prima pars: Congratulamini mihi omnes
=1	=1	=1	=1
0r	0r	0r	1g
.	.	.	1dd
=2	=2	=2	=2
0r	0r	1r	1dd
.	.	1c	[1ee
=3	=3	=3	=3
0r	0r	1g	2ee]
.	.	.	2ee
.	.	1g	1dd
=4	=4	=4	=4
0r	0r	1.a	1ff
.	.	.	1ee
.	.	2a	.
=5	=5	=5	=5
0r	0r	1g	1ee
.	.	1b-X	1dd
=6	=6	=6	=6
0r	0r	1a	2r
.	.	.	1ee
.	.	1a	.
.	.	.	2cc
=7	=7	=7	=7
0r	0r	1g	2dd
.	.	.	2ee
.	.	2r	2.a
.	.	[2a	.
.	.	.	4b
=8	=8	=8	=8
0r	0r	2a]	2cc
.	.	2f	1dd
.	.	2g	.
.	.	2a	2cc
=9	=9	=9	=9
0r	1G	2.d	2b
.	.	.	1dd
.	.	4e	.
.	1d	2f	.
.	.	[2g	4cc
.	.	.	4b
=10	=10	=10	=10
1r	1d	2g]	1a
.	.	2f#i	.
1C	[1e	[1g	2.g
.	.	.	4a
=11	=11	=11	=11
1G	2e]	0g]	2b
.	2e	.	2.cc
1G	1d	.	.
.	.	.	8bL
.	.	.	8aJ
.	.	.	2b
=12	=12	=12	=12
1.A	1f	2r	1.cc
.	.	1c	.
.	1e	.	.
2A	.	2c	4b
.	.	.	4a
=13	=13	=13	=13
1G	1e	2g	2.b
.	.	2g	.
.	.	.	4cc
1B-X	1d	1f	1dd
=14	=14	=14	=14
1A	2r	2.a	1cc
.	1e	.	.
.	.	4g	.
1A	.	2e	1r
.	2c	2f	.
=15	=15	=15	=15
1G	2d	1g	1r
.	2e	.	.
2r	2.A	2.c	[1cc
[2A	.	.	.
.	4B	4d	.
=16	=16	=16	=16
2A]	2c	2e	2cc]
2F	1d	2f	2a
2G	.	1e	2b
2A	2c	.	2cc
=17	=17	=17	=17
2.D	2A	2r	2.dd
.	1d	1f	.
4E	.	.	4cc
2F	.	.	2a
[2G	4c	2d	2b
.	4B	.	.
=18	=18	=18	=18
2G]	1A	2e	2cc
2F	.	2f	2a
2E	2.G	2.g	2.b
[2G	.	.	.
.	4A	4f	4cc
=19	=19	=19	=19
2G]	2B	2d	2dd
4F	1c	2e	2g
4E	.	.	.
1D	.	2.f	1dd
.	2B	.	.
.	.	4g	.
=20	=20	=20	=20
2C	1c	2a	2r
2.c	.	1g	1ee
.	2r	.	.
4B	.	.	.
2A	[2c	[2f	2cc
=21	=21	=21	=21
1G	2c]	2f]	2dd
.	2B	2e	2ee
[1F	2d	2f	2.a
.	2c	[2a	.
.	.	.	4b
=22	=22	=22	=22
2F]	2.A	2a]	2cc
2D	.	4g	1dd
.	4B	4f	.
1A	1c	2e	.
.	.	2f	2cc
=23	=23	=23	=23
0G	2.d	2.g	2b
.	.	.	1dd
.	4c	4f	.
.	2B	2d	.
.	2G	[2e	4cc
.	.	.	4b
=24	=24	=24	=24
2.F	2.A	2e]	1a
.	.	2d	.
4E	4B	.	.
2C	2c	1e	2.g
[2E	2B	.	.
.	.	.	4a
=25	=25	=25	=25
2E]	[0G	1r	2b
4D	.	.	1cc
4C	.	.	.
1G	.	1d	.
.	.	.	2b
=26	=26	=26	=26
0C	1G]	1e	2cc
.	.	.	1ee
.	1r	[1g	.
.	.	.	4dd
.	.	.	4cc
=27	=27	=27	=27
1E	1G	2g]	2b
.	.	2g	2cc
1D	1A	1f	1dd
=28	=28	=28	=28
1C	1.c	[0e	0g
2r	.	.	.
2C	2c	.	.
=29	=29	=29	=29
1E	1B	1e]	2r
.	.	.	2g
[1F	1A	2r	2a
.	.	2c	[2cc
=30	=30	=30	=30
2F]	2r	2c	4cc]
.	.	.	4b
2F	2A	2d	1a
1E	2c	1e	.
.	2B	.	2g
=31	=31	=31	=31
1D	1d	1A	1f
2r	2.c	1r	1e
2E	.	.	.
.	4B	.	.
=32	=32	=32	=32
2F	2A	1c	0r
2E	2.G	.	.
1G	.	1d	.
.	4A	.	.
.	4B	.	.
.	4c	.	.
=33	=33	=33	=33
2.F	2d	1.f	0r
.	1c	.	.
4E	.	.	.
1D	.	.	.
.	2B	2f	.
=34	=34	=34	=34
1C	2c	1e	1g
.	1G	.	.
1G	.	1d	1b
.	[2g	.	.
=35	=35	=35	=35
2.c	4g]	2r	1.cc
.	4f	.	.
.	4e	2e	.
4B	4d	.	.
1A	2.c	2f	.
.	.	2e	2cc
.	4d	.	.
=36	=36	=36	=36
1G	2e	1g	1b
.	1d	.	.
2r	.	2.f	1a
[2D	2d	.	.
.	.	4e	.
=37	=37	=37	=37
4D]	1f	2d	2r
4E	.	.	.
4F	.	1c	2a
4G	.	.	.
2A	2e	.	2cc
[2G	[2g	[2d	2b
=38	=38	=38	=38
2G]	2g]	4d]	1dd
.	.	4e	.
2D	2.f	4f	.
.	.	4g	.
2F	.	2a	2cc
.	4e	.	.
2G	4d	[2g	2b
.	4c	.	.
=39	=39	=39	=39
1D	2d	2g]	1a
.	2A	2f	.
2r	2c	2e	2.g
[2G	2B	[2d	.
.	.	.	4a
=40	=40	=40	=40
2G]	1d	2d]	2b
2D	.	1f	1a
2F	2.c	.	.
2C	.	2e	[2g
.	4B	.	.
=41	=41	=41	=41
1D	1A	1d	2g]
.	.	.	2f#i
2r	1G	1r	[1g
[2G	.	.	.
=42	=42	=42	=42
2G]	2.B	1d	0g]
2G	.	.	.
.	4A	.	.
2E	2B	1e	.
2C	2c	.	.
=43	=43	=43	=43
1G	2G	1d	1b
.	1g	.	.
1A	.	1c	1cc
.	2f#i	.	.
=44	=44	=44	=44
1G	1g	2r	1b
.	.	1g	.
1D	1r	.	1a
.	.	2f	.
=45	=45	=45	=45
2A	1r	2e	2r
2F	.	2.a	1cc
1G	[1d	.	.
.	.	4g	.
.	.	[2g	2b
=46	=46	=46	=46
1D	1d]	2g]	2a
.	.	2f	2.dd
1r	1e	[1g	.
.	.	.	4cc
.	.	.	[2cc
=47	=47	=47	=47
1G	1d	1g]	2cc]
.	.	.	2b
1A	1c	2.e	2cc
.	.	.	2a
.	.	4f	.
=48	=48	=48	=48
1G	2r	1g	1b
.	1d	.	.
2F	.	1r	1a
2F	2c	.	.
=49	=49	=49	=49
2G	2B	1g	0r
2C	2.e	.	.
1F	.	1a	.
.	4d	.	.
.	[2d	.	.
=50	=50	=50	=50
1E	2d]	1g	0r
.	2c#i	.	.
1D	4d	1f	.
.	4c	.	.
.	4B	.	.
.	4A	.	.
=51	=51	=51	=51
1r	1B	2r	0dd
.	.	1g	.
1D	2A	.	.
.	[2d	2f	.
=52	=52	=52	=52
2.A	4d]	2e	1ee
.	4c	.	.
.	1c	2.a	.
4G	.	.	.
2F	.	.	1dd
.	.	4g	.
2G	2B	[2g	.
=53	=53	=53	=53
1A	2c	2g]	1cc
.	2A	2f#i	.
2.G	2.B	1g	2r
.	.	.	[2dd
4A	4c	.	.
=54	=54	=54	=54
2B	2d	2r	2dd]
2c	1e	2g	2cc
2G	.	2g	2b
2A	4d	2e	[2ee
.	4c	.	.
=55	=55	=55	=55
1B-X	1d	1g	4ee]
.	.	.	4dd
.	.	.	1dd
1A	1e	1a	.
.	.	.	2cc#i
=56	=56	=56	=56
2D	2.d	1r	1dd
1G	.	.	.
.	4c	.	.
.	2B	1g	1r
4F	4A	.	.
4E	4G	.	.
=57	=57	=57	=57
1D	2A	2f	1dd
.	2B	2d	.
1r	1A	2e	2cc
.	.	2f	2a
=58	=58	=58	=58
0r	0r	2d	2b
.	.	2.c	2cc
.	.	.	2a
.	.	4d	.
.	.	4e	[2g
.	.	4f	.
=59	=59	=59	=59
1r	1e	2.g	4g]
.	.	.	4a
.	.	.	4b
.	.	4a	4cc
1G	2d	2b	1dd
.	2B	2g	.
=60	=60	=60	=60
2F	2c	2a	1ff
2D	2d	2f	.
2E	2B	2g	2ee
2F	[2A	2a	2cc
=61	=61	=61	=61
2D	4A]	2f	2dd
.	4B	.	.
2.C	4c	2.e	2ee
.	4d	.	.
.	1e	.	2cc
4D	.	4f	.
4E	.	[2g	[2b
4F	.	.	.
=62	=62	=62	=62
0G	1d	2g]	4b]
.	.	.	4cc
.	.	4f	1dd
.	.	4e	.
.	1r	2.d	.
.	.	.	4cc
.	.	4e	4b
=63	=63	=63	=63
1r	1d	1f	1a
1F	2c	1r	1a
.	2A	.	.
=64	=64	=64	=64
2E	2B	1e	2g
2C	2c	.	2e
2D	2A	2d	2f
2E	[2G	2B	2g
=65	=65	=65	=65
2C	4G]	2c	2e
.	4A	.	.
1G	4B	2d	2.d
.	4c	.	.
.	4d	2B	.
.	4B	.	4e
2A	[2c	[2A	4f
.	.	.	4g
=66	=66	=66	=66
1F	2c]	4A]	2.a
.	.	4B	.
.	4B	4c	.
.	4A	4d	4b
2E	2G	2e	2cc
2D	2A	2f	[2dd
=67	=67	=67	=67
2.G	2B	2d	4dd]
.	.	.	4cc
.	1d	2.g	4b
4F	.	.	4a
2G	.	.	2b
.	.	4f	.
2C	2c	2e	[2a
=68	=68	=68	=68
2D	2B	2d	4a]
.	.	.	4d
2E	4A	2c	1g
.	4G	.	.
1D	1A	1d	.
.	.	.	2f#i
=69	=69	=69	=69
1r	2r	1e	1g
.	2c	.	.
1F	2c	1c	2r
.	2A	.	2a
=70	=70	=70	=70
2E	2B	1e	2g
2C	2c	.	2e
2D	2A	2d	2f
2E	[2G	2B	2g
=71	=71	=71	=71
2C	4G]	2c	2e
.	4A	.	.
1G	4B	2d	2.d
.	4c	.	.
.	4d	2B	.
.	4B	.	4e
2A	[2c	[2A	4f
.	.	.	4g
=72	=72	=72	=72
1F	2c]	4A]	2.a
.	.	4B	.
.	4B	4c	.
.	4A	4d	4b
2E	2G	2e	2cc
2D	2A	2f	[2dd
=73	=73	=73	=73
2.G	2B	2d	4dd]
.	.	.	4cc
.	1d	2.g	4b
4F	.	.	4a
2G	.	.	2b
.	.	4f	.
2C	2c	2e	[2a
=74	=74	=74	=74
2D	2B	2d	4a]
.	.	.	4g
2E	4A	2c	1g
.	4G	.	.
1D	1A	[1d	.
.	.	.	2f#i
=75	=75	=75	=75
1G	1B	1d]	[0g
1C	1c	1e	.
=	=	=	=
00G	00B	00d	00g]
=||	=||	=||	=||
*M2/1	*M2/1	*M2/1	*M2/1
*met(C|)	*met(C|)	*met(C|)	*met(C|)
!!section: Secunda pars: Recendibus discipulis
!!!OMD: Secunda pars: Recendibus discipulis
!	!	!	!LO:TX:a:t=Secunda pars&colon; Recendibus discipulis
0r	1.G	0r	0r
.	2G	.	.
=76	=76	=76	=76
0r	1B	0r	0r
.	1c	.	.
=77	=77	=77	=77
1.D	2.d	0r	0r
.	4c	.	.
.	2B	.	.
2D	2A	.	.
=78	=78	=78	=78
1E	2c	0r	0r
.	2B	.	.
1F	1A	.	.
=79	=79	=79	=79
2.G	2r	0r	0r
.	2d	.	.
4F	.	.	.
2E	2c	.	.
2D	2d	.	.
=80	=80	=80	=80
1F	2A	0r	0r
.	1d	.	.
1E	.	.	.
.	2c#i	.	.
=81	=81	=81	=81
1D	2d	0r	0r
.	2f	.	.
2r	2e	.	.
2G	[2d	.	.
=82	=82	=82	=82
2F	4d]	1.d	0r
.	4c	.	.
2G	4B	.	.
.	4A	.	.
2D	1B	.	.
[2d	.	2d	.
=83	=83	=83	=83
2d]	1A	1e	1.a
2c	.	.	.
1d	2r	1f	.
.	2d	.	2a
=84	=84	=84	=84
1G	2d	1g	1b
.	1e	.	.
1A	.	1r	1cc
.	4d	.	.
.	4c	.	.
=85	=85	=85	=85
1G	4B	1.d	2.dd
.	4G	.	.
.	1g	.	.
.	.	.	4cc
1r	.	.	2b
.	2f#i	2d	2a
=86	=86	=86	=86
0r	2g	1e	2cc
.	2G	.	2b
.	1d	1f	1a
=87	=87	=87	=87
0r	1G	2.g	2r
.	.	.	2dd
.	.	4f	.
.	1r	2e	2cc
.	.	2d	2dd
=88	=88	=88	=88
1D	0r	1f	2a
.	.	.	1dd
1A	.	1e	.
.	.	.	2cc#i
=89	=89	=89	=89
1.B-X	0r	2d	1dd
.	.	2g	.
.	.	2f	1dd
2G	.	2g	.
=90	=90	=90	=90
1B-i	1G	2d	2dd
.	.	1g	2dd
1A	1c	.	1cc
.	.	2f#i	.
=91	=91	=91	=91
1G	1.d	1g	1b
2F	.	1r	1r
2G	2B	.	.
=92	=92	=92	=92
2C	1e	0r	1g
1c	.	.	.
.	2d	.	1dd
2B	[2g	.	.
=93	=93	=93	=93
2c	2g]	1c	1.ee
2A	1c	.	.
1G	.	1g	.
.	2B	.	2dd
=94	=94	=94	=94
2.F	0c	1.a	1ff
4E	.	.	.
1C	.	.	1ee
.	.	2g	.
=95	=95	=95	=95
0r	1G	1b-X	2.dd
.	.	.	4ee
.	1r	[1a	2ff
.	.	.	[2ee
=96	=96	=96	=96
0r	0r	1a]	2ee]
.	.	.	4dd
.	.	.	4cc
.	.	2.g	2b
.	.	.	2ee
.	.	4a	.
=97	=97	=97	=97
1r	0r	2b	2dd
.	.	1a	2.ff
1D	.	.	.
.	.	.	4ee
.	.	2f	[2dd
=98	=98	=98	=98
1A	1r	1e	4dd]
.	.	.	4cc#i
.	.	.	4cc#i
.	.	.	8bL
.	.	.	8cc#iJ
[1B-X	1G	2.d	2dd
.	.	.	[2dd
.	.	4e	.
=99	=99	=99	=99
2B-]	1d	2f	2dd]
2B-i	.	2g	2dd
1A	[1e	4c	1cc
.	.	4d	.
.	.	4e	.
.	.	4f	.
=100	=100	=100	=100
1G	2e]	1g	1b
.	2d	.	.
2.F	1f	1c	2.a
4G	.	.	4b
=101	=101	=101	=101
2A	1e	0r	2cc
1G	.	.	1b
.	2.d	.	.
4F	.	.	4a
4E	4e	.	4g
=102	=102	=102	=102
2D	2f	2r	2a
2C	1e	1g	2cc
[1G	.	.	2.b
.	4d	4f	.
.	4c	4e	4cc
=103	=103	=103	=103
2G]	2B	2d	4dd
.	.	.	4b
2C	2e	1g	2cc
2G	2d	.	2b
2A	[2f	2c	[2a
=104	=104	=104	=104
1B	4f]	1d	2a]
.	4e	.	.
.	1d	.	2g
1A	.	1e	[1a
.	2c#i	.	.
=105	=105	=105	=105
2D	0d	2.f	1a]
1d	.	.	.
.	.	4e	.
.	.	2f	1r
4c	.	[2g	.
4B	.	.	.
=106	=106	=106	=106
2c	1r	2g]	1a
2d	.	2f	.
1G	1d	2g	1b
.	.	[2G	.
=107	=107	=107	=107
0r	1e	2G]	1g
.	.	1c	.
.	1d	.	[1dd
.	.	4B	.
.	.	4A	.
=108	=108	=108	=108
0r	1.g	2B	2dd]
.	.	2c	2ee
.	.	1G	2.dd
.	4f	.	.
.	4e	.	4ee
=109	=109	=109	=109
0r	2d	0r	2ff
.	2e	.	1ee
.	2f	.	.
.	2g	.	[2dd
=110	=110	=110	=110
1r	2e	1A	2dd]
.	2.f	.	2cc
2r	.	1B-X	1dd
.	4e	.	.
2D	[2d	.	.
=111	=111	=111	=111
1E	4d]	1G	1r
.	4c	.	.
.	1g	.	.
1D	.	[1d	1a
.	2f#i	.	.
=112	=112	=112	=112
1.G	1g	2d]	2b
.	.	2e	2g
.	1G	2.d	2.b
4F	.	.	.
4E	.	4e	4cc
=113	=113	=113	=113
2D	0r	2f	2dd
2E	.	2.e	2cc
2F	.	.	2cc
.	.	4d	.
2G	.	[2d	4b
.	.	.	4a
=114	=114	=114	=114
1E	1G	2d]	2g
.	.	2c#i	2g
1D	1A	2.d	1f#i
.	.	4c	.
=115	=115	=115	=115
1E	1G	1B	2r
.	.	.	2g
1F	[1c	1A	1a
=116	=116	=116	=116
2.C	2c]	2.e	2g
.	4B	.	2cc
4D	4A	4f	.
2E	2G	2g	2b
2F	2A	2c	[2a
=117	=117	=117	=117
2E	2B	1e	4a]
.	.	.	4g
2C	2c	.	1g
1D	1A	1d	.
.	.	.	2f#i
=118	=118	=118	=118
1G	2r	1d	[0g
.	2B	.	.
2r	1c	1r	.
2C	.	.	.
=119	=119	=119	=119
1G	2.B	1d	0g]
.	4A	.	.
2E	2B	1e	.
2C	2c	.	.
=120	=120	=120	=120
1G	2G	1d	1b
.	1g	.	.
1A	.	1c	1cc
.	2f#i	.	.
=121	=121	=121	=121
1G	1g	2r	1b
.	.	1g	.
1D	1r	.	1a
.	.	2f	.
=122	=122	=122	=122
2A	1r	2e	2r
2F	.	2.a	1cc
1G	[1d	.	.
.	.	4g	.
.	.	[2g	2b
=123	=123	=123	=123
1D	1d]	2g]	2a
.	.	2f#i	2.dd
1r	1e	[1g	.
.	.	.	4cc
.	.	.	[2cc
=124	=124	=124	=124
1G	1d	1g]	2cc]
.	.	.	2b
1A	1c	2.e	2cc
.	.	.	2a
.	.	4f	.
=125	=125	=125	=125
1G	2r	1g	1b
.	1d	.	.
2F	.	1r	1a
2F	2c	.	.
=126	=126	=126	=126
2G	2B	1g	0r
2C	2.e	.	.
1F	.	1a	.
.	4d	.	.
.	[2d	.	.
=127	=127	=127	=127
1E	2d]	1g	0r
.	2c#i	.	.
1D	4d	1f	.
.	4c	.	.
.	4B	.	.
.	4A	.	.
=128	=128	=128	=128
1r	1B	2r	0dd
.	.	1g	.
1D	2A	.	.
.	[2d	2f	.
=129	=129	=129	=129
2.A	4d]	2e	1ee
.	4c	.	.
.	1c	2.a	.
4G	.	.	.
2F	.	.	1dd
.	.	4g	.
2G	2B	[2g	.
=130	=130	=130	=130
1A	2c	2g]	1cc
.	2A	2f#i	.
2.G	2.B	1g	2r
.	.	.	[2dd
4A	4c	.	.
=131	=131	=131	=131
2B	2d	2r	2dd]
2c	1e	2g	2cc
2G	.	2g	2b
2A	4d	2e	[2ee
.	4c	.	.
=132	=132	=132	=132
1B-X	1d	1g	4ee]
.	.	.	4dd
.	.	.	1dd
1A	1e	1a	.
.	.	.	2cc#i
=133	=133	=133	=133
2D	2.d	1r	1dd
1G	.	.	.
.	4c	.	.
.	2B	1g	1r
4F	4A	.	.
4E	4G	.	.
=134	=134	=134	=134
1D	2A	2f	1dd
.	2B	2d	.
1r	1A	2e	2cc
.	.	2f	2a
=135	=135	=135	=135
0r	0r	2d	2b
.	.	2.c	2cc
.	.	.	2a
.	.	4d	.
.	.	4e	[2g
.	.	4f	.
=136	=136	=136	=136
1r	1e	2.g	4g]
.	.	.	4a
.	.	.	4b
.	.	4a	4cc
1G	2d	2b	1dd
.	2B	2g	.
=137	=137	=137	=137
2F	2c	2a	1ff
2D	2d	2f	.
2E	2B	2g	2ee
2F	[2A	2a	2cc
=138	=138	=138	=138
2D	4A]	2f	2dd
.	4B	.	.
2.C	4c	2.e	2ee
.	4d	.	.
.	1e	.	2cc
4D	.	4f	.
4E	.	[2g	[2b
4F	.	.	.
=139	=139	=139	=139
0G	1d	2g]	4b]
.	.	.	4cc
.	.	4f	1dd
.	.	4e	.
.	1r	2.d	.
.	.	.	4cc
.	.	4e	4b
=140	=140	=140	=140
1r	1d	1f	1a
1F	2c	1r	1a
.	2A	.	.
=141	=141	=141	=141
2E	2B	1e	2g
2C	2c	.	2e
2D	2A	2d	2f
2E	[2G	2B	2g
=142	=142	=142	=142
2C	4G]	2c	2e
.	4A	.	.
1G	4B	2d	2.d
.	4c	.	.
.	4d	2B	.
.	4B	.	4e
2A	[2c	[2A	4f
.	.	.	4g
=143	=143	=143	=143
1F	2c]	4A]	2.a
.	.	4B	.
.	4B	4c	.
.	4A	4d	4b
2E	2G	2e	2cc
2D	2A	2f	[2dd
=144	=144	=144	=144
2.G	2B	2d	4dd]
.	.	.	4cc
.	1d	2.g	4b
4F	.	.	4a
2G	.	.	2b
.	.	4f	.
2C	2c	2e	[2a
=145	=145	=145	=145
2D	2B	2d	4a]
.	.	.	4d
2E	4A	2c	1g
.	4G	.	.
1D	1A	1d	.
.	.	.	2f#i
=146	=146	=146	=146
1r	2r	1e	1g
.	2c	.	.
1F	2c	1c	2r
.	2A	.	2a
=147	=147	=147	=147
2E	2B	1e	2g
2C	2c	.	2e
2D	2A	2d	2f
2E	[2G	2B	2g
=148	=148	=148	=148
2C	4G]	2c	2e
.	4A	.	.
1G	4B	2d	2.d
.	4c	.	.
.	4d	2B	.
.	4B	.	4e
2A	[2c	[2A	4f
.	.	.	4g
=149	=149	=149	=149
1F	2c]	4A]	2.a
.	.	4B	.
.	4B	4c	.
.	4A	4d	4b
2E	2G	2e	2cc
2D	2A	2f	[2dd
=150	=150	=150	=150
2.G	2B	2d	4dd]
.	.	.	4cc
.	1d	2.g	4b
4F	.	.	4a
2G	.	.	2b
.	.	4f	.
2C	2c	2e	[2a
=151	=151	=151	=151
2D	2B	2d	4a]
.	.	.	4g
2E	4A	2c	1g
.	4G	.	.
1D	1A	[1d	.
.	.	.	2f#i
=152	=152	=152	=152
1G	1B	1d]	[0gl
1C	1c	1e	.
=153	=153	=153	=153
00Gl	00Bl	00dl	00g]
==	==	==	==
*-	*-	*-	*-
!!!system-decoration: [*]
!!!RDF**kern: i = editorial accidental
!!!RDF**kern: l = terminal long
!!!ENC: Benjamin Ory
!!!END: 2020/12/17
!!!EED: Benjamin Ory
!!!EEV: 2021/04/30
!!!YEC: Copyright 2021 Benjamin Ory, All Rights Reserved
!!!ONB: Translated from MusicXML on 2021/04/30
